X: 1
T: Boolavogue
M: 3/4
L: 1/8
R: waltz
K: Dmaj
&quot;D&quot;D2|D4 A,2|D2F2A2|&quot;G&quot;d4c2|Bd3 BB|&quot;A&quot;A4 B2|&quot;Bm&quot;FE D3F|&quot;Em&quot;E4 D2|&quot;G&quot;B,4&quot;A7&quot;C2|
&quot;D&quot;D4 A,2|D2F2A2|&quot;G&quot;d4c2|Bd3 B2|&quot;D&quot;A4B2|&quot;Bm&quot;FED2F2|&quot;A7&quot;E4C2|&quot;D&quot;D4F2|
A4F2|&quot;F#m&quot;AB3c2|&quot;G&quot;d4c2|B2d2B2|&quot;D&quot;A4B2|&quot;Bm&quot;F4 DF|&quot;Em&quot;E4 D2|&quot;G&quot;B,4 &quot;A7&quot;C2|
&quot;D&quot;D4 A,2|D4 FA|&quot;G&quot;d4 c2|Bd3B2|&quot;D&quot;A4B2|&quot;Bm&quot;FED2F2|&quot;A7&quot;E4C2|&quot;D&quot;D4:|
